icon_svgs/Matrix.svg

<svg xmlns="http://www.w3.org/2000/svg" xmlns:xlink="http://www.w3.org/1999/xlink" viewBox="315.313 238.718 24 24" width="25" height="25"><defs><path d="M316.85 259.26h1.39v.46h-1.93v-20h1.93v.46h-1.39v19.08zm17.54 0h1.38v-19.08h-1.38v-.46h1.92v20h-1.92v-.46zm-5.02-13.22h.09l.08.01h.08l.09.01.07.01.08.01h.07l.06.01.06.01.05.01.04.01.17.06.16.06.15.07.15.08.13.09.13.1.11.1.11.12.09.12.09.14.08.14.07.14.05.13.05.13.04.15.02.19.02.23.02.31.01.39v.49l.01.61v.74l.02 2.66h-2l-.02-2.37v-.97l-.01-.37v-.31l-.01-.25v-.2l-.01-.16-.01-.12-.01-.1-.01-.07-.02-.06-.02-.08-.03-.08-.03-.07-.04-.07-.04-.06-.04-.06-.05-.05-.05-.05-.06-.05-.06-.04-.06-.04-.05-.03-.05-.02-.04-.02-.04-.01-.04-.02h-.05l-.05-.01h-.05l-.07-.01h-.34l-.07.01h-.1l-.05.01-.04.01-.04.01-.03.01-.03.02-.04.02-.06.03-.06.04-.06.03-.05.04-.04.04-.04.04-.04.04-.04.05-.04.05-.03.05-.03.06-.06.11-.05.09-.03.11-.03.11-.03.16-.01.19-.01.26-.01.32-.01.41v.51l-.01.62-.01 2.3h-1.99l-.01-2.47-.01-.69v-.56l-.01-.45-.01-.35-.01-.27-.02-.2-.03-.14-.04-.11-.05-.08-.06-.08-.08-.08-.13-.11-.15-.08-.16-.06-.18-.03h-.19l-.18.02-.19.04-.17.06-.17.09-.15.11-.12.14-.02.03-.03.03-.02.04-.03.04-.02.04-.02.04-.03.04-.02.04-.02.04-.02.03-.01.04-.09.22-.01 2.33-.01 2.34h-2v-7.15h1.89v.93l.17-.21.09-.11.1-.1.1-.09.11-.09.12-.09.12-.08.13-.07.13-.06.13-.06.14-.05.13-.04.06-.02.06-.01.06-.01.05-.01.06-.01h.75l.09.01.08.01h.07l.06.01.07.01.06.02.06.02.06.01.07.03.13.05.13.05.11.05.11.06.09.07.09.07.09.08.08.08.07.09.07.1.07.1.1.17.31-.31.11-.1.11-.1.1-.09.1-.07.11-.08.1-.06.11-.06.11-.05.11-.04.11-.04.12-.03.07-.02.07-.01.06-.02.06-.01h.07l.06-.01h.35l.12.01z" id="prefix__a"/></defs><use xlink:href="#prefix__a" fill="#959da5"/></svg>

<?xml version="1.0" encoding="UTF-8" standalone="no"?><!DOCTYPE svg PUBLIC "-//W3C//DTD SVG 1.1//EN" "http://www.w3.org/Graphics/SVG/1.1/DTD/svg11.dtd"><svg version="1.1" xmlns="http://www.w3.org/2000/svg" xmlns:xlink="http://www.w3.org/1999/xlink" preserveAspectRatio="xMidYMid meet" viewBox="315.3134042553192 238.71829787234037 24 24" width="25" height="25"><defs><path d="M316.85 259.26L318.24 259.26L318.24 259.72L316.31 259.72L316.31 239.72L318.24 239.72L318.24 240.18L316.85 240.18L316.85 240.18L316.85 259.26ZM334.39 259.26L335.77 259.26L335.77 240.18L334.39 240.18L334.39 239.72L336.31 239.72L336.31 259.72L334.39 259.72L334.39 259.72L334.39 259.26ZM329.37 246.04L329.46 246.04L329.54 246.05L329.62 246.05L329.71 246.06L329.78 246.07L329.86 246.08L329.93 246.08L329.99 246.09L330.05 246.1L330.1 246.11L330.14 246.12L330.31 246.18L330.47 246.24L330.62 246.31L330.77 246.39L330.9 246.48L331.03 246.58L331.14 246.68L331.25 246.8L331.34 246.92L331.43 247.06L331.51 247.2L331.58 247.34L331.63 247.47L331.68 247.6L331.72 247.75L331.74 247.94L331.76 248.17L331.78 248.48L331.79 248.87L331.79 249.36L331.8 249.97L331.8 250.71L331.82 253.37L329.82 253.37L329.8 251L329.8 250.47L329.8 250.03L329.79 249.66L329.79 249.35L329.78 249.1L329.78 248.9L329.77 248.74L329.76 248.62L329.75 248.52L329.74 248.45L329.72 248.39L329.7 248.31L329.67 248.23L329.64 248.16L329.6 248.09L329.56 248.03L329.52 247.97L329.47 247.92L329.42 247.87L329.36 247.82L329.3 247.78L329.24 247.74L329.19 247.71L329.14 247.69L329.1 247.67L329.06 247.66L329.02 247.64L328.97 247.64L328.92 247.63L328.87 247.63L328.8 247.62L328.72 247.62L328.62 247.62L328.53 247.62L328.46 247.62L328.39 247.63L328.34 247.63L328.29 247.63L328.24 247.64L328.2 247.65L328.16 247.66L328.13 247.67L328.1 247.69L328.06 247.71L328 247.74L327.94 247.78L327.88 247.81L327.83 247.85L327.79 247.89L327.75 247.93L327.71 247.97L327.67 248.02L327.63 248.07L327.6 248.12L327.57 248.18L327.51 248.29L327.46 248.38L327.43 248.49L327.4 248.6L327.37 248.76L327.36 248.95L327.35 249.21L327.34 249.53L327.33 249.94L327.33 250.45L327.32 251.07L327.31 253.37L325.32 253.37L325.31 250.9L325.3 250.21L325.3 249.65L325.29 249.2L325.28 248.85L325.27 248.58L325.25 248.38L325.22 248.24L325.18 248.13L325.13 248.05L325.07 247.97L324.99 247.89L324.86 247.78L324.71 247.7L324.55 247.64L324.37 247.61L324.18 247.61L324 247.63L323.81 247.67L323.64 247.73L323.47 247.82L323.32 247.93L323.2 248.07L323.18 248.1L323.15 248.13L323.13 248.17L323.1 248.21L323.08 248.25L323.06 248.29L323.03 248.33L323.01 248.37L322.99 248.41L322.97 248.44L322.96 248.48L322.87 248.7L322.86 251.03L322.85 253.37L320.85 253.37L320.85 246.22L322.74 246.22L322.74 247.15L322.91 246.94L323 246.83L323.1 246.73L323.2 246.64L323.31 246.55L323.43 246.46L323.55 246.38L323.68 246.31L323.81 246.25L323.94 246.19L324.08 246.14L324.21 246.1L324.27 246.08L324.33 246.07L324.39 246.06L324.44 246.05L324.5 246.04L324.57 246.04L324.64 246.04L324.72 246.04L324.81 246.04L324.91 246.04L325.02 246.04L325.14 246.04L325.25 246.04L325.34 246.05L325.42 246.06L325.49 246.06L325.55 246.07L325.62 246.08L325.68 246.1L325.74 246.12L325.8 246.13L325.87 246.16L326 246.21L326.13 246.26L326.24 246.31L326.35 246.37L326.44 246.44L326.53 246.51L326.62 246.59L326.7 246.67L326.77 246.76L326.84 246.86L326.91 246.96L327.01 247.13L327.32 246.82L327.43 246.72L327.54 246.62L327.64 246.53L327.74 246.46L327.85 246.38L327.95 246.32L328.06 246.26L328.17 246.21L328.28 246.17L328.39 246.13L328.51 246.1L328.58 246.08L328.65 246.07L328.71 246.05L328.77 246.04L328.84 246.04L328.9 246.03L328.98 246.03L329.06 246.03L329.15 246.03L329.25 246.03L329.25 246.03L329.37 246.04Z" id="busM5OxyY"></path></defs><g><g><use xlink:href="#busM5OxyY" opacity="1" fill="#959da5" fill-opacity="1"></use></g></g></svg>
